static/assets/img/icons/theme/code/plus.svg

<svg height="24" viewBox="0 0 24 24" width="24" xmlns="http://www.w3.org/2000/svg"><g fill="none" fill-rule="evenodd"><path d="m0 0h24v24h-24z" opacity="0"/><g fill="#000"><circle cx="12" cy="12" opacity=".3" r="10"/><path d="m11 11v-4c0-.55228475.4477153-1 1-1s1 .44771525 1 1v4h4c.5522847 0 1 .4477153 1 1s-.4477153 1-1 1h-4v4c0 .5522847-.4477153 1-1 1s-1-.4477153-1-1v-4h-4c-.55228475 0-1-.4477153-1-1s.44771525-1 1-1z"/></g></g></svg>

<svg width="24px" height="24px" viewBox="0 0 24 24" version="1.1" xmlns="http://www.w3.org/2000/svg" xmlns:xlink="http://www.w3.org/1999/xlink">
    <title>Icon For Plus</title>
    <g stroke="none" stroke-width="1" fill="none" fill-rule="evenodd">
        <rect opacity="0" x="0" y="0" width="24" height="24"></rect>
        <circle fill="#000000" opacity="0.3" cx="12" cy="12" r="10"></circle>
        <path d="M11,11 L11,7 C11,6.44771525 11.4477153,6 12,6 C12.5522847,6 13,6.44771525 13,7 L13,11 L17,11 C17.5522847,11 18,11.4477153 18,12 C18,12.5522847 17.5522847,13 17,13 L13,13 L13,17 C13,17.5522847 12.5522847,18 12,18 C11.4477153,18 11,17.5522847 11,17 L11,13 L7,13 C6.44771525,13 6,12.5522847 6,12 C6,11.4477153 6.44771525,11 7,11 L11,11 Z" fill="#000000"></path>
    </g>
</svg>
